(Exported by FreeCAD)
(Post Processor: grbl_post)
(Output Time:2020-11-06 17:55:22.803714)
(Begin preamble)
G17 G90
G21
(Begin operation: Fixture)
(Path: Fixture)
G54
(Finish operation: Fixture)
(Begin operation: Default Tool)
(Path: Default Tool)
(Default Tool)
(Begin toolchange)
( M6 T1.0 )
M3 S10000.0
(Finish operation: Default Tool)
(Begin operation: Profile001)
(Path: Profile001)
(Profile001)
(Compensated Tool Path. Diameter: 2.0)
G0 Z5.000
G0 X28.912 Y69.912
G0 Z3.000
G1 X28.912 Y69.912 Z-0.200 F360.000
G2 X28.117 Y66.601 Z-0.200 I-1.412 J-1.412 K0.000 F360.000
G2 X26.883 Y70.399 Z-0.200 I-0.617 J1.899 K0.000 F360.000
G2 X28.912 Y69.912 Z-0.200 I0.617 J-1.899 K0.000 F360.000
G0 Z5.000
G0 Z5.000
G0 X28.912 Y69.912
G0 X27.529 Y163.503
G0 X27.529 Y163.503 Z3.000
G1 X27.529 Y163.503 Z-0.200 F360.000
G2 X26.883 Y167.399 Z-0.200 I-0.029 J1.997 K0.000 F360.000
G2 X28.117 Y163.601 Z-0.200 I0.617 J-1.899 K0.000 F360.000
G2 X27.529 Y163.503 Z-0.200 I-0.617 J1.899 K0.000 F360.000
G0 Z5.000
G0 Z5.000
G0 X27.529 Y163.503
G0 X141.505 Y158.095
G0 X141.505 Y158.095 Z3.000
G1 X141.505 Y158.095 Z-0.200 F360.000
G2 X142.883 Y159.899 Z-0.200 I1.995 J-0.095 K0.000 F360.000
G2 X144.117 Y156.101 Z-0.200 I0.617 J-1.899 K0.000 F360.000
G2 X141.505 Y158.095 Z-0.200 I-0.617 J1.899 K0.000 F360.000
G0 Z5.000
G0 Z5.000
G0 X141.505 Y158.095
G0 X143.459 Y62.996
G0 X143.459 Y62.996 Z3.000
G1 X143.459 Y62.996 Z-0.200 F360.000
G2 X144.117 Y59.101 Z-0.200 I0.041 J-1.996 K0.000 F360.000
G2 X141.601 Y60.383 Z-0.200 I-0.617 J1.899 K0.000 F360.000
G2 X142.883 Y62.899 Z-0.200 I1.899 J0.617 K0.000 F360.000
G2 X143.459 Y62.996 Z-0.200 I0.617 J-1.899 K0.000 F360.000
G0 Z5.000
(Finish operation: Profile001)
(Begin operation: Pocket_Shape001)
(Path: Pocket_Shape001)
(Pocket_Shape001)
G0 Z5.000
G0 X50.959 Y26.239
G0 Z3.000
G1 X50.959 Y26.239 Z-1.200 F360.000
G3 X50.610 Y26.384 Z-1.200 I-0.349 J-0.349 K0.000 F360.000
G3 X50.610 Y25.396 Z-1.200 I0.000 J-0.494 K0.000 F360.000
G3 X50.959 Y26.239 Z-1.200 I0.000 J0.494 K0.000 F360.000
G1 X50.959 Y26.239 Z-2.200 F360.000
G3 X50.610 Y26.384 Z-2.200 I-0.349 J-0.349 K0.000 F360.000
G3 X50.610 Y25.396 Z-2.200 I0.000 J-0.494 K0.000 F360.000
G3 X50.959 Y26.239 Z-2.200 I0.000 J0.494 K0.000 F360.000
G0 Z5.000
G0 Z5.000
G0 X50.959 Y26.239
G0 X59.270 Y10.437
G0 X59.270 Y10.437 Z3.000
G1 X59.270 Y10.437 Z-1.200 F360.000
G3 X59.500 Y9.506 Z-1.200 I0.230 J-0.437 K0.000 F360.000
G3 X59.500 Y10.494 Z-1.200 I0.000 J0.494 K0.000 F360.000
G3 X59.270 Y10.437 Z-1.200 I0.000 J-0.494 K0.000 F360.000
G1 X59.270 Y10.437 Z-2.200 F360.000
G3 X59.500 Y9.506 Z-2.200 I0.230 J-0.437 K0.000 F360.000
G3 X59.500 Y10.494 Z-2.200 I0.000 J0.494 K0.000 F360.000
G3 X59.270 Y10.437 Z-2.200 I0.000 J-0.494 K0.000 F360.000
G0 Z5.000
G0 Z5.000
G0 X59.270 Y10.437
G0 X74.265 Y10.014
G0 X74.265 Y10.014 Z3.000
G1 X74.265 Y10.014 Z-1.200 F360.000
G3 X74.759 Y9.506 Z-1.200 I0.493 J-0.014 K0.000 F360.000
G3 X75.252 Y10.000 Z-1.200 I0.000 J0.494 K0.000 F360.000
G3 X74.759 Y10.494 Z-1.200 I-0.494 J0.000 K0.000 F360.000
G3 X74.265 Y10.014 Z-1.200 I-0.000 J-0.494 K0.000 F360.000
G1 X74.265 Y10.014 Z-2.200 F360.000
G3 X74.759 Y9.506 Z-2.200 I0.493 J-0.014 K0.000 F360.000
G3 X75.252 Y10.000 Z-2.200 I0.000 J0.494 K0.000 F360.000
G3 X74.759 Y10.494 Z-2.200 I-0.494 J0.000 K0.000 F360.000
G3 X74.265 Y10.014 Z-2.200 I-0.000 J-0.494 K0.000 F360.000
G0 Z5.000
G0 Z5.000
G0 X74.265 Y10.014
G0 X74.759 Y67.506
G0 X74.759 Y67.506 Z3.000
G1 X74.759 Y67.506 Z-1.200 F360.000
G3 X74.759 Y68.494 Z-1.200 I0.000 J0.494 K0.000 F360.000
G3 X74.759 Y67.506 Z-1.200 I0.000 J-0.494 K0.000 F360.000
G1 X74.759 Y67.506 Z-2.200 F360.000
G3 X74.759 Y68.494 Z-2.200 I0.000 J0.494 K0.000 F360.000
G3 X74.759 Y67.506 Z-2.200 I0.000 J-0.494 K0.000 F360.000
G0 Z5.000
G0 Z5.000
G0 X74.759 Y67.506
G0 X59.993 Y67.984
G0 X59.993 Y67.984 Z3.000
G1 X59.993 Y67.984 Z-1.200 F360.000
G3 X59.500 Y68.494 Z-1.200 I-0.493 J0.016 K0.000 F360.000
G3 X59.500 Y67.506 Z-1.200 I0.000 J-0.494 K0.000 F360.000
G3 X59.993 Y67.984 Z-1.200 I0.000 J0.494 K0.000 F360.000
G1 X59.993 Y67.984 Z-2.200 F360.000
G3 X59.500 Y68.494 Z-2.200 I-0.493 J0.016 K0.000 F360.000
G3 X59.500 Y67.506 Z-2.200 I0.000 J-0.494 K0.000 F360.000
G3 X59.993 Y67.984 Z-2.200 I0.000 J0.494 K0.000 F360.000
G0 Z5.000
G0 Z5.000
G0 X59.993 Y67.984
G0 X51.104 Y67.999
G0 X51.104 Y67.999 Z3.000
G1 X51.104 Y67.999 Z-1.200 F360.000
G3 X50.610 Y68.494 Z-1.200 I-0.494 J0.001 K0.000 F360.000
G3 X50.610 Y67.506 Z-1.200 I0.000 J-0.494 K0.000 F360.000
G3 X51.104 Y67.999 Z-1.200 I0.000 J0.494 K0.000 F360.000
G1 X51.104 Y67.999 Z-2.200 F360.000
G3 X50.610 Y68.494 Z-2.200 I-0.494 J0.001 K0.000 F360.000
G3 X50.610 Y67.506 Z-2.200 I0.000 J-0.494 K0.000 F360.000
G3 X51.104 Y67.999 Z-2.200 I0.000 J0.494 K0.000 F360.000
G0 Z5.000
G0 Z5.000
G0 X51.104 Y67.999
G0 X27.994 Y68.490
G0 X27.994 Y68.490 Z3.000
G1 X27.994 Y68.490 Z-1.200 F360.000
G3 X27.500 Y68.994 Z-1.200 I-0.494 J0.010 K0.000 F360.000
G3 X27.500 Y68.006 Z-1.200 I0.000 J-0.494 K0.000 F360.000
G3 X27.994 Y68.490 Z-1.200 I0.000 J0.494 K0.000 F360.000
G1 X27.994 Y68.490 Z-2.200 F360.000
G3 X27.500 Y68.994 Z-2.200 I-0.494 J0.010 K0.000 F360.000
G3 X27.500 Y68.006 Z-2.200 I0.000 J-0.494 K0.000 F360.000
G3 X27.994 Y68.490 Z-2.200 I0.000 J0.494 K0.000 F360.000
G0 Z5.000
G0 Z5.000
G0 X27.994 Y68.490
G0 X10.993 Y68.014
G0 X10.993 Y68.014 Z3.000
G1 X10.993 Y68.014 Z-1.200 F360.000
G3 X10.500 Y68.494 Z-1.200 I-0.493 J-0.014 K0.000 F360.000
G3 X10.006 Y68.000 Z-1.200 I-0.000 J-0.494 K0.000 F360.000
G3 X10.500 Y67.506 Z-1.200 I0.494 J0.000 K0.000 F360.000
G3 X10.993 Y68.014 Z-1.200 I0.000 J0.494 K0.000 F360.000
G1 X10.993 Y68.014 Z-2.200 F360.000
G3 X10.500 Y68.494 Z-2.200 I-0.493 J-0.014 K0.000 F360.000
G3 X10.006 Y68.000 Z-2.200 I-0.000 J-0.494 K0.000 F360.000
G3 X10.500 Y67.506 Z-2.200 I0.494 J0.000 K0.000 F360.000
G3 X10.993 Y68.014 Z-2.200 I0.000 J0.494 K0.000 F360.000
G0 Z5.000
G0 Z5.000
G0 X10.993 Y68.014
G0 X10.500 Y105.473
G0 X10.500 Y105.473 Z3.000
G1 X10.500 Y105.473 Z-1.200 F360.000
G3 X10.500 Y106.460 Z-1.200 I0.000 J0.494 K0.000 F360.000
G3 X10.500 Y105.473 Z-1.200 I0.000 J-0.494 K0.000 F360.000
G1 X10.500 Y105.473 Z-2.200 F360.000
G3 X10.500 Y106.460 Z-2.200 I0.000 J0.494 K0.000 F360.000
G3 X10.500 Y105.473 Z-2.200 I0.000 J-0.494 K0.000 F360.000
G0 Z5.000
G0 Z5.000
G0 X10.500 Y105.473
G0 Y143.374
G0 Y143.374 Z3.000
G1 X10.500 Y143.374 Z-1.200 F360.000
G3 X10.500 Y144.362 Z-1.200 I0.000 J0.494 K0.000 F360.000
G3 X10.500 Y143.374 Z-1.200 I0.000 J-0.494 K0.000 F360.000
G1 X10.500 Y143.374 Z-2.200 F360.000
G3 X10.500 Y144.362 Z-2.200 I0.000 J0.494 K0.000 F360.000
G3 X10.500 Y143.374 Z-2.200 I0.000 J-0.494 K0.000 F360.000
G0 Z5.000
G0 Z5.000
G0 X10.500 Y143.374
G0 X27.199 Y165.109
G0 X27.199 Y165.109 Z3.000
G1 X27.199 Y165.109 Z-1.200 F360.000
G3 X27.500 Y165.006 Z-1.200 I0.301 J0.391 K0.000 F360.000
G3 X27.500 Y165.994 Z-1.200 I0.000 J0.494 K0.000 F360.000
G3 X27.199 Y165.109 Z-1.200 I0.000 J-0.494 K0.000 F360.000
G1 X27.199 Y165.109 Z-2.200 F360.000
G3 X27.500 Y165.006 Z-2.200 I0.301 J0.391 K0.000 F360.000
G3 X27.500 Y165.994 Z-2.200 I0.000 J0.494 K0.000 F360.000
G3 X27.199 Y165.109 Z-2.200 I0.000 J-0.494 K0.000 F360.000
G0 Z5.000
G0 Z5.000
G0 X27.199 Y165.109
G0 X86.006 Y166.488
G0 X86.006 Y166.488 Z3.000
G1 X86.006 Y166.488 Z-1.200 F360.000
G3 X86.500 Y166.006 Z-1.200 I0.494 J0.012 K0.000 F360.000
G3 X86.500 Y166.994 Z-1.200 I0.000 J0.494 K0.000 F360.000
G3 X86.006 Y166.488 Z-1.200 I0.000 J-0.494 K0.000 F360.000
G1 X86.006 Y166.488 Z-2.200 F360.000
G3 X86.500 Y166.006 Z-2.200 I0.494 J0.012 K0.000 F360.000
G3 X86.500 Y166.994 Z-2.200 I0.000 J0.494 K0.000 F360.000
G3 X86.006 Y166.488 Z-2.200 I0.000 J-0.494 K0.000 F360.000
G0 Z5.000
G0 Z5.000
G0 X86.006 Y166.488
G0 X86.495 Y121.994
G0 X86.495 Y121.994 Z3.000
G1 X86.495 Y121.994 Z-1.200 F360.000
G3 X86.006 Y121.500 Z-1.200 I0.005 J-0.494 K0.000 F360.000
G3 X86.500 Y121.006 Z-1.200 I0.494 J-0.000 K0.000 F360.000
G3 X86.994 Y121.500 Z-1.200 I0.000 J0.494 K0.000 F360.000
G3 X86.495 Y121.994 Z-1.200 I-0.494 J-0.000 K0.000 F360.000
G1 X86.495 Y121.994 Z-2.200 F360.000
G3 X86.006 Y121.500 Z-2.200 I0.005 J-0.494 K0.000 F360.000
G3 X86.500 Y121.006 Z-2.200 I0.494 J-0.000 K0.000 F360.000
G3 X86.994 Y121.500 Z-2.200 I0.000 J0.494 K0.000 F360.000
G3 X86.495 Y121.994 Z-2.200 I-0.494 J-0.000 K0.000 F360.000
G0 Z5.000
G0 Z5.000
G0 X86.495 Y121.994
G0 X75.050 Y106.365
G0 X75.050 Y106.365 Z3.000
G1 X75.050 Y106.365 Z-1.200 F360.000
G3 X74.759 Y106.460 Z-1.200 I-0.292 J-0.398 K0.000 F360.000
G3 X74.265 Y105.966 Z-1.200 I-0.000 J-0.494 K0.000 F360.000
G3 X74.759 Y105.473 Z-1.200 I0.494 J0.000 K0.000 F360.000
G3 X75.050 Y106.365 Z-1.200 I0.000 J0.494 K0.000 F360.000
G1 X75.050 Y106.365 Z-2.200 F360.000
G3 X74.759 Y106.460 Z-2.200 I-0.292 J-0.398 K0.000 F360.000
G3 X74.265 Y105.966 Z-2.200 I-0.000 J-0.494 K0.000 F360.000
G3 X74.759 Y105.473 Z-2.200 I0.494 J0.000 K0.000 F360.000
G3 X75.050 Y106.365 Z-2.200 I0.000 J0.494 K0.000 F360.000
G0 Z5.000
G0 Z5.000
G0 X75.050 Y106.365
G0 X131.023 Y121.372
G0 X131.023 Y121.372 Z3.000
G1 X131.023 Y121.372 Z-1.200 F360.000
G3 X131.500 Y121.006 Z-1.200 I0.477 J0.128 K0.000 F360.000
G3 X131.500 Y121.994 Z-1.200 I-0.000 J0.494 K0.000 F360.000
G3 X131.023 Y121.372 Z-1.200 I-0.000 J-0.494 K0.000 F360.000
G1 X131.023 Y121.372 Z-2.200 F360.000
G3 X131.500 Y121.006 Z-2.200 I0.477 J0.128 K0.000 F360.000
G3 X131.500 Y121.994 Z-2.200 I-0.000 J0.494 K0.000 F360.000
G3 X131.023 Y121.372 Z-2.200 I-0.000 J-0.494 K0.000 F360.000
G0 Z5.000
G0 Z5.000
G0 X131.023 Y121.372
G0 X143.341 Y157.533
G0 X143.341 Y157.533 Z3.000
G1 X143.341 Y157.533 Z-1.200 F360.000
G3 X143.500 Y157.506 Z-1.200 I0.159 J0.467 K0.000 F360.000
G3 X143.500 Y158.494 Z-1.200 I0.000 J0.494 K0.000 F360.000
G3 X143.341 Y157.533 Z-1.200 I0.000 J-0.494 K0.000 F360.000
G1 X143.341 Y157.533 Z-2.200 F360.000
G3 X143.500 Y157.506 Z-2.200 I0.159 J0.467 K0.000 F360.000
G3 X143.500 Y158.494 Z-2.200 I0.000 J0.494 K0.000 F360.000
G3 X143.341 Y157.533 Z-2.200 I0.000 J-0.494 K0.000 F360.000
G0 Z5.000
G0 Z5.000
G0 X143.341 Y157.533
G0 X131.894 Y166.202
G0 X131.894 Y166.202 Z3.000
G1 X131.894 Y166.202 Z-1.200 F360.000
G3 X131.500 Y166.994 Z-1.200 I-0.394 J0.298 K0.000 F360.000
G3 X131.500 Y166.006 Z-1.200 I0.000 J-0.494 K0.000 F360.000
G3 X131.894 Y166.202 Z-1.200 I0.000 J0.494 K0.000 F360.000
G1 X131.894 Y166.202 Z-2.200 F360.000
G3 X131.500 Y166.994 Z-2.200 I-0.394 J0.298 K0.000 F360.000
G3 X131.500 Y166.006 Z-2.200 I0.000 J-0.494 K0.000 F360.000
G3 X131.894 Y166.202 Z-2.200 I0.000 J0.494 K0.000 F360.000
G0 Z5.000
G0 Z5.000
G0 X131.894 Y166.202
G0 X143.446 Y61.491
G0 X143.446 Y61.491 Z3.000
G1 X143.446 Y61.491 Z-1.200 F360.000
G3 X143.500 Y60.506 Z-1.200 I0.054 J-0.491 K0.000 F360.000
G3 X143.994 Y61.000 Z-1.200 I0.000 J0.494 K0.000 F360.000
G3 X143.500 Y61.494 Z-1.200 I-0.494 J0.000 K0.000 F360.000
G3 X143.446 Y61.491 Z-1.200 I-0.000 J-0.494 K0.000 F360.000
G1 X143.446 Y61.491 Z-2.200 F360.000
G3 X143.500 Y60.506 Z-2.200 I0.054 J-0.491 K0.000 F360.000
G3 X143.994 Y61.000 Z-2.200 I0.000 J0.494 K0.000 F360.000
G3 X143.500 Y61.494 Z-2.200 I-0.494 J0.000 K0.000 F360.000
G3 X143.446 Y61.491 Z-2.200 I-0.000 J-0.494 K0.000 F360.000
G0 Z5.000
G0 Z5.000
G0 X143.446 Y61.491
G0 X115.474 Y53.240
G0 X115.474 Y53.240 Z3.000
G1 X115.474 Y53.240 Z-1.200 F360.000
G3 X115.000 Y53.594 Z-1.200 I-0.474 J-0.140 K0.000 F360.000
G3 X115.000 Y52.606 Z-1.200 I0.000 J-0.494 K0.000 F360.000
G3 X115.474 Y53.240 Z-1.200 I0.000 J0.494 K0.000 F360.000
G1 X115.474 Y53.240 Z-2.200 F360.000
G3 X115.000 Y53.594 Z-2.200 I-0.474 J-0.140 K0.000 F360.000
G3 X115.000 Y52.606 Z-2.200 I0.000 J-0.494 K0.000 F360.000
G3 X115.474 Y53.240 Z-2.200 I0.000 J0.494 K0.000 F360.000
G0 Z5.000
G0 Z5.000
G0 X115.474 Y53.240
G0 X186.512 Y63.927
G0 X186.512 Y63.927 Z3.000
G1 X186.512 Y63.927 Z-1.200 F360.000
G3 X187.000 Y63.506 Z-1.200 I0.488 J0.073 K0.000 F360.000
G3 X187.000 Y64.494 Z-1.200 I0.000 J0.494 K0.000 F360.000
G3 X186.512 Y63.927 Z-1.200 I0.000 J-0.494 K0.000 F360.000
G1 X186.512 Y63.927 Z-2.200 F360.000
G3 X187.000 Y63.506 Z-2.200 I0.488 J0.073 K0.000 F360.000
G3 X187.000 Y64.494 Z-2.200 I0.000 J0.494 K0.000 F360.000
G3 X186.512 Y63.927 Z-2.200 I0.000 J-0.494 K0.000 F360.000
G0 Z5.000
(Finish operation: Pocket_Shape001)
(Begin operation: DressupTag)
(Path: DressupTag)
G0 Z5.000
G0 X193.014 Y155.500 Z5.000
G0 X193.014 Y155.500 Z3.000
G1 X193.014 Y155.500 Z-1.500 F360.000
G2 X193.500 Y155.000 Z-1.500 I-0.014 J-0.500 K0.000 F360.000
G1 X193.500 Y114.942 Z-1.500 F360.000
G1 X193.500 Y114.842 Z-1.400 F360.000
G1 X193.500 Y100.158 Z-1.400 F360.000
G1 X193.500 Y100.058 Z-1.500 F360.000
G1 X193.500 Y60.000 Z-1.500 F360.000
G2 X193.000 Y59.500 Z-1.500 I-0.500 J-0.000 K0.000 F360.000
G1 X181.010 Y59.500 Z-1.500 F360.000
G3 X169.500 Y47.990 Z-1.500 I-0.009 J-11.501 K0.000 F360.000
G1 X169.500 Y5.000 Z-1.500 F360.000
G2 X169.000 Y4.500 Z-1.500 I-0.500 J-0.000 K0.000 F360.000
G1 X106.442 Y4.500 Z-1.500 F360.000
G1 X106.342 Y4.500 Z-1.400 F360.000
G1 X91.658 Y4.500 Z-1.400 F360.000
G1 X91.558 Y4.500 Z-1.500 F360.000
G1 X29.000 Y4.500 Z-1.500 F360.000
G2 X28.500 Y5.000 Z-1.500 I-0.000 J0.500 K0.000 F360.000
G1 X28.500 Y47.990 Z-1.500 F360.000
G3 X16.990 Y59.500 Z-1.500 I-11.501 J0.009 K0.000 F360.000
G1 X5.000 Y59.500 Z-1.500 F360.000
G2 X4.500 Y60.000 Z-1.500 I-0.000 J0.500 K0.000 F360.000
G1 X4.500 Y100.058 Z-1.500 F360.000
G1 X4.500 Y100.158 Z-1.400 F360.000
G1 X4.500 Y114.842 Z-1.400 F360.000
G1 X4.500 Y114.942 Z-1.500 F360.000
G1 X4.500 Y155.000 Z-1.500 F360.000
G2 X4.984 Y155.500 Z-1.500 I0.500 J-0.000 K0.000 F360.000
G3 X22.500 Y173.016 Z-1.500 I0.015 J17.502 K0.000 F360.000
G2 X23.000 Y173.500 Z-1.500 I0.500 J-0.016 K0.000 F360.000
G1 X87.058 Y173.500 Z-1.500 F360.000
G1 X87.158 Y173.500 Z-1.400 F360.000
G1 X101.842 Y173.500 Z-1.400 F360.000
G1 X101.942 Y173.500 Z-1.500 F360.000
G1 X166.000 Y173.500 Z-1.500 F360.000
G2 X166.500 Y173.016 Z-1.500 I-0.000 J-0.500 K0.000 F360.000
G3 X184.008 Y155.500 Z-1.500 I17.501 J-0.015 K0.000 F360.000
G1 X193.000 Y155.500 Z-1.500 F360.000
G2 X193.014 Y155.500 Z-1.500 I0.000 J-0.500 K0.000 F360.000
G1 X193.014 Y155.500 Z-2.200 F360.000
G2 X193.500 Y155.000 Z-2.200 I-0.014 J-0.500 K0.000 F360.000
G1 X193.500 Y115.642 Z-2.200 F360.000
G1 X193.500 Y114.842 Z-1.400 F360.000
G1 X193.500 Y100.158 Z-1.400 F360.000
G1 X193.500 Y99.358 Z-2.200 F360.000
G1 X193.500 Y60.000 Z-2.200 F360.000
G2 X193.000 Y59.500 Z-2.200 I-0.500 J-0.000 K0.000 F360.000
G1 X181.010 Y59.500 Z-2.200 F360.000
G3 X169.500 Y47.990 Z-2.200 I-0.009 J-11.501 K0.000 F360.000
G1 X169.500 Y5.000 Z-2.200 F360.000
G2 X169.000 Y4.500 Z-2.200 I-0.500 J-0.000 K0.000 F360.000
G1 X107.142 Y4.500 Z-2.200 F360.000
G1 X106.342 Y4.500 Z-1.400 F360.000
G1 X91.658 Y4.500 Z-1.400 F360.000
G1 X90.858 Y4.500 Z-2.200 F360.000
G1 X29.000 Y4.500 Z-2.200 F360.000
G2 X28.500 Y5.000 Z-2.200 I-0.000 J0.500 K0.000 F360.000
G1 X28.500 Y47.990 Z-2.200 F360.000
G3 X16.990 Y59.500 Z-2.200 I-11.501 J0.009 K0.000 F360.000
G1 X5.000 Y59.500 Z-2.200 F360.000
G2 X4.500 Y60.000 Z-2.200 I-0.000 J0.500 K0.000 F360.000
G1 X4.500 Y99.358 Z-2.200 F360.000
G1 X4.500 Y100.158 Z-1.400 F360.000
G1 X4.500 Y114.842 Z-1.400 F360.000
G1 X4.500 Y115.642 Z-2.200 F360.000
G1 X4.500 Y155.000 Z-2.200 F360.000
G2 X4.984 Y155.500 Z-2.200 I0.500 J-0.000 K0.000 F360.000
G3 X22.500 Y173.016 Z-2.200 I0.015 J17.502 K0.000 F360.000
G2 X23.000 Y173.500 Z-2.200 I0.500 J-0.016 K0.000 F360.000
G1 X86.358 Y173.500 Z-2.200 F360.000
G1 X87.158 Y173.500 Z-1.400 F360.000
G1 X101.842 Y173.500 Z-1.400 F360.000
G1 X102.642 Y173.500 Z-2.200 F360.000
G1 X166.000 Y173.500 Z-2.200 F360.000
G2 X166.500 Y173.016 Z-2.200 I-0.000 J-0.500 K0.000 F360.000
G3 X184.008 Y155.500 Z-2.200 I17.501 J-0.015 K0.000 F360.000
G1 X193.000 Y155.500 Z-2.200 F360.000
G2 X193.014 Y155.500 Z-2.200 I0.000 J-0.500 K0.000 F360.000
G0 X193.014 Y155.500 Z5.000
(Finish operation: DressupTag)
(Begin postamble)
M5
G17 G90
M2
