(Exported by FreeCAD)
(Post Processor: grbl_post)
(Output Time:2020-10-15 14:19:55.686121)
(Begin preamble)
G17 G90
G21
(Begin operation: Fixture)
(Path: Fixture)
G54
(Finish operation: Fixture)
(Begin operation: Default Tool)
(Path: Default Tool)
(Default Tool)
(Begin toolchange)
( M6 T1.0 )
M3 S10000.0
(Finish operation: Default Tool)
(Begin operation: DressupTag)
(Path: DressupTag)
G0 Z5.000
G0 X193.053 Y155.999 Z5.000
G0 X193.053 Y155.999 Z3.000
G1 X193.053 Y155.999 Z-2.100 F1200.000
G2 X194.000 Y155.000 Z-2.100 I-0.053 J-0.999 K0.000 F1200.000
G1 X194.000 Y115.646 Z-2.100 F1200.000
G1 X194.000 Y115.246 Z-1.700 F1200.000
G1 X194.000 Y99.754 Z-1.700 F1200.000
G1 X194.000 Y99.354 Z-2.100 F1200.000
G1 X194.000 Y60.000 Z-2.100 F1200.000
G2 X193.000 Y59.000 Z-2.100 I-1.000 J0.000 K0.000 F1200.000
G1 X181.020 Y59.000 Z-2.100 F1200.000
G3 X170.000 Y47.980 Z-2.100 I-0.018 J-11.002 K0.000 F1200.000
G1 X170.000 Y5.000 Z-2.100 F1200.000
G2 X169.000 Y4.000 Z-2.100 I-1.000 J0.000 K0.000 F1200.000
G1 X107.146 Y4.000 Z-2.100 F1200.000
G1 X106.746 Y4.000 Z-1.700 F1200.000
G1 X91.254 Y4.000 Z-1.700 F1200.000
G1 X90.854 Y4.000 Z-2.100 F1200.000
G1 X29.000 Y4.000 Z-2.100 F1200.000
G2 X28.000 Y5.000 Z-2.100 I0.000 J1.000 K0.000 F1200.000
G1 X28.000 Y47.980 Z-2.100 F1200.000
G3 X16.980 Y59.000 Z-2.100 I-11.002 J0.018 K0.000 F1200.000
G1 X5.000 Y59.000 Z-2.100 F1200.000
G2 X4.000 Y60.000 Z-2.100 I0.000 J1.000 K0.000 F1200.000
G1 X4.000 Y99.354 Z-2.100 F1200.000
G1 X4.000 Y99.754 Z-1.700 F1200.000
G1 X4.000 Y115.246 Z-1.700 F1200.000
G1 X4.000 Y115.646 Z-2.100 F1200.000
G1 X4.000 Y155.000 Z-2.100 F1200.000
G2 X4.967 Y155.999 Z-2.100 I1.000 J0.000 K0.000 F1200.000
G3 X22.001 Y173.033 Z-2.100 I0.030 J17.003 K0.000 F1200.000
G2 X23.000 Y174.000 Z-2.100 I0.999 J-0.033 K0.000 F1200.000
G1 X86.354 Y174.000 Z-2.100 F1200.000
G1 X86.754 Y174.000 Z-1.700 F1200.000
G1 X102.246 Y174.000 Z-1.700 F1200.000
G1 X102.646 Y174.000 Z-2.100 F1200.000
G1 X166.000 Y174.000 Z-2.100 F1200.000
G2 X166.999 Y173.033 Z-2.100 I0.000 J-1.000 K0.000 F1200.000
G3 X184.016 Y156.000 Z-2.100 I17.002 J-0.030 K0.000 F1200.000
G1 X193.000 Y156.000 Z-2.100 F1200.000
G2 X193.053 Y155.999 Z-2.100 I-0.000 J-1.000 K0.000 F1200.000
G0 X193.053 Y155.999 Z5.000
(Finish operation: DressupTag)
(Begin operation: Pocket_Shape)
(Path: Pocket_Shape)
(Pocket_Shape)
G0 Z5.000
G0 X50.959 Y26.239
G0 Z3.000
G1 X50.959 Y26.239 Z-2.000 F1200.000
G2 X50.610 Y25.396 Z-2.000 I-0.349 J-0.349 K0.000 F1200.000
G2 X50.610 Y26.384 Z-2.000 I0.000 J0.494 K0.000 F1200.000
G2 X50.959 Y26.239 Z-2.000 I0.000 J-0.494 K0.000 F1200.000
G0 Z5.000
G0 Z5.000
G0 X50.959 Y26.239
G0 X59.270 Y10.437
G0 X59.270 Y10.437 Z3.000
G1 X59.270 Y10.437 Z-2.000 F1200.000
G2 X59.500 Y10.494 Z-2.000 I0.230 J-0.437 K0.000 F1200.000
G2 X59.500 Y9.506 Z-2.000 I0.000 J-0.494 K0.000 F1200.000
G2 X59.270 Y10.437 Z-2.000 I0.000 J0.494 K0.000 F1200.000
G0 Z5.000
G0 Z5.000
G0 X59.270 Y10.437
G0 X59.500 Y67.506
G0 X59.500 Y67.506 Z3.000
G1 X59.500 Y67.506 Z-2.000 F1200.000
G2 X59.500 Y68.494 Z-2.000 I0.000 J0.494 K0.000 F1200.000
G2 X59.500 Y67.506 Z-2.000 I0.000 J-0.494 K0.000 F1200.000
G0 Z5.000
G0 Z5.000
G0 X59.500 Y67.506
G0 X51.103 Y67.973
G0 X51.103 Y67.973 Z3.000
G1 X51.103 Y67.973 Z-2.000 F1200.000
G2 X50.610 Y67.506 Z-2.000 I-0.493 J0.027 K0.000 F1200.000
G2 X50.610 Y68.494 Z-2.000 I0.000 J0.494 K0.000 F1200.000
G2 X51.103 Y67.973 Z-2.000 I0.000 J-0.494 K0.000 F1200.000
G0 Z5.000
G0 Z5.000
G0 X51.103 Y67.973
G0 X27.994 Y68.489
G0 X27.994 Y68.489 Z3.000
G1 X27.994 Y68.489 Z-2.000 F1200.000
G2 X27.500 Y68.006 Z-2.000 I-0.494 J0.011 K0.000 F1200.000
G2 X27.500 Y68.994 Z-2.000 I0.000 J0.494 K0.000 F1200.000
G2 X27.994 Y68.489 Z-2.000 I0.000 J-0.494 K0.000 F1200.000
G0 Z5.000
G0 Z5.000
G0 X27.994 Y68.489
G0 X10.993 Y68.014
G0 X10.993 Y68.014 Z3.000
G1 X10.993 Y68.014 Z-2.000 F1200.000
G2 X10.500 Y67.506 Z-2.000 I-0.493 J-0.014 K0.000 F1200.000
G2 X10.006 Y68.000 Z-2.000 I-0.000 J0.494 K0.000 F1200.000
G2 X10.500 Y68.494 Z-2.000 I0.494 J0.000 K0.000 F1200.000
G2 X10.993 Y68.014 Z-2.000 I0.000 J-0.494 K0.000 F1200.000
G0 Z5.000
G0 Z5.000
G0 X10.993 Y68.014
G0 X86.097 Y121.215
G0 X86.097 Y121.215 Z3.000
G1 X86.097 Y121.215 Z-2.000 F1200.000
G2 X86.500 Y121.994 Z-2.000 I0.403 J0.285 K0.000 F1200.000
G2 X86.500 Y121.006 Z-2.000 I-0.000 J-0.494 K0.000 F1200.000
G2 X86.097 Y121.215 Z-2.000 I-0.000 J0.494 K0.000 F1200.000
G0 Z5.000
G0 Z5.000
G0 X86.097 Y121.215
G0 X86.500 Y166.006
G0 X86.500 Y166.006 Z3.000
G1 X86.500 Y166.006 Z-2.000 F1200.000
G2 X86.500 Y166.994 Z-2.000 I0.000 J0.494 K0.000 F1200.000
G2 X86.500 Y166.006 Z-2.000 I0.000 J-0.494 K0.000 F1200.000
G0 Z5.000
G0 Z5.000
G0 X86.500 Y166.006
G0 X131.006 Y166.495
G0 X131.006 Y166.495 Z3.000
G1 X131.006 Y166.495 Z-2.000 F1200.000
G2 X131.500 Y166.994 Z-2.000 I0.494 J0.005 K0.000 F1200.000
G2 X131.500 Y166.006 Z-2.000 I0.000 J-0.494 K0.000 F1200.000
G2 X131.006 Y166.495 Z-2.000 I0.000 J0.494 K0.000 F1200.000
G0 Z5.000
G0 Z5.000
G0 X131.006 Y166.495
G0 X143.092 Y158.278
G0 X143.092 Y158.278 Z3.000
G1 X143.092 Y158.278 Z-2.000 F1200.000
G2 X143.500 Y158.494 Z-2.000 I0.408 J-0.278 K0.000 F1200.000
G2 X143.500 Y157.506 Z-2.000 I0.000 J-0.494 K0.000 F1200.000
G2 X143.092 Y158.278 Z-2.000 I0.000 J0.494 K0.000 F1200.000
G0 Z5.000
G0 Z5.000
G0 X143.092 Y158.278
G0 X131.648 Y121.971
G0 X131.648 Y121.971 Z3.000
G1 X131.648 Y121.971 Z-2.000 F1200.000
G2 X131.500 Y121.006 Z-2.000 I-0.148 J-0.471 K0.000 F1200.000
G2 X131.006 Y121.500 Z-2.000 I-0.000 J0.494 K0.000 F1200.000
G2 X131.500 Y121.994 Z-2.000 I0.494 J0.000 K0.000 F1200.000
G2 X131.648 Y121.971 Z-2.000 I-0.000 J-0.494 K0.000 F1200.000
G0 Z5.000
G0 Z5.000
G0 X131.648 Y121.971
G0 X143.406 Y61.485
G0 X143.406 Y61.485 Z3.000
G1 X143.406 Y61.485 Z-2.000 F1200.000
G2 X143.994 Y61.000 Z-2.000 I0.094 J-0.485 K0.000 F1200.000
G2 X143.006 Y61.000 Z-2.000 I-0.494 J0.000 K0.000 F1200.000
G2 X143.406 Y61.485 Z-2.000 I0.494 J-0.000 K0.000 F1200.000
G0 Z5.000
G0 Z5.000
G0 X143.406 Y61.485
G0 X115.473 Y53.240
G0 X115.473 Y53.240 Z3.000
G1 X115.473 Y53.240 Z-2.000 F1200.000
G2 X115.000 Y52.606 Z-2.000 I-0.473 J-0.140 K0.000 F1200.000
G2 X115.000 Y53.594 Z-2.000 I0.000 J0.494 K0.000 F1200.000
G2 X115.473 Y53.240 Z-2.000 I0.000 J-0.494 K0.000 F1200.000
G0 Z5.000
G0 Z5.000
G0 X115.473 Y53.240
G0 X186.512 Y63.927
G0 X186.512 Y63.927 Z3.000
G1 X186.512 Y63.927 Z-2.000 F1200.000
G2 X187.000 Y64.494 Z-2.000 I0.488 J0.073 K0.000 F1200.000
G2 X187.000 Y63.506 Z-2.000 I0.000 J-0.494 K0.000 F1200.000
G2 X186.512 Y63.927 Z-2.000 I0.000 J0.494 K0.000 F1200.000
G0 Z5.000
G0 Z5.000
G0 X186.512 Y63.927
G0 X27.916 Y165.234
G0 X27.916 Y165.234 Z3.000
G1 X27.916 Y165.234 Z-2.000 F1200.000
G2 X27.500 Y165.006 Z-2.000 I-0.416 J0.266 K0.000 F1200.000
G2 X27.500 Y165.994 Z-2.000 I0.000 J0.494 K0.000 F1200.000
G2 X27.916 Y165.234 Z-2.000 I0.000 J-0.494 K0.000 F1200.000
G0 Z5.000
(Finish operation: Pocket_Shape)
(Begin postamble)
M5
G17 G90
M2
