(Exported by FreeCAD)
(Post Processor: grbl_post)
(Output Time:2024-05-22 18:41:59.392062)
(Begin preamble)
G17 G90
G21
(Begin operation: Fixture)
(Path: Fixture)
G54
(Finish operation: Fixture)
(Begin operation: TC: Default Tool)
(Path: TC: Default Tool)
(TC: Default Tool)
(Begin toolchange)
( M6 T1 )
M3 S10000
(Finish operation: TC: Default Tool)
(Begin operation: Profile)
(Path: Profile)
(Profile)
(Compensated Tool Path. Diameter: 2.0)
G0 Z7.000
G0 X143.911 Y159.954
G0 Z5.000
G1 X143.911 Y159.954 Z1.800 F360.000
G2 X144.117 Y156.101 Z1.800 I-0.411 J-1.954 K0.000 F360.000
G2 X141.601 Y157.383 Z1.800 I-0.617 J1.899 K0.000 F360.000
G2 X142.883 Y159.899 Z1.800 I1.899 J0.617 K0.000 F360.000
G2 X143.911 Y159.954 Z1.800 I0.617 J-1.899 K0.000 F360.000
G0 Z7.000
G0 X143.508 Y62.997 Z7.000
G0 X143.508 Y62.997 Z5.000
G1 X143.508 Y62.997 Z1.800 F360.000
G2 X144.117 Y59.101 Z1.800 I-0.008 J-1.997 K0.000 F360.000
G2 X141.601 Y60.383 Z1.800 I-0.617 J1.899 K0.000 F360.000
G2 X142.883 Y62.899 Z1.800 I1.899 J0.617 K0.000 F360.000
G2 X143.508 Y62.997 Z1.800 I0.617 J-1.899 K0.000 F360.000
G0 Z7.000
G0 X29.495 Y68.405 Z7.000
G0 X29.495 Y68.405 Z5.000
G1 X29.495 Y68.405 Z1.800 F360.000
G2 X28.117 Y66.601 Z1.800 I-1.995 J0.095 K0.000 F360.000
G2 X26.883 Y70.399 Z1.800 I-0.617 J1.899 K0.000 F360.000
G2 X29.495 Y68.405 Z1.800 I0.617 J-1.899 K0.000 F360.000
G0 Z7.000
G0 X27.541 Y163.504 Z7.000
G0 X27.541 Y163.504 Z5.000
G1 X27.541 Y163.504 Z1.800 F360.000
G2 X26.883 Y167.399 Z1.800 I-0.041 J1.996 K0.000 F360.000
G2 X29.399 Y166.117 Z1.800 I0.617 J-1.899 K0.000 F360.000
G2 X28.117 Y163.601 Z1.800 I-1.899 J-0.617 K0.000 F360.000
G2 X27.541 Y163.504 Z1.800 I-0.617 J1.899 K0.000 F360.000
G0 Z7.000
G0 Z7.000
(Finish operation: Profile)
(Begin operation: Helix)
(Path: Helix)
(Helix)
(helix cut operation)
G0 Z7.000
G0 Z7.000
G0 X50.610 Y30.890 Z7.000
G0 X50.610 Y30.890 Z2.000
G0 X51.110 Y30.890
G1 Z2.000 F360.000
G2 X50.110 Y30.890 Z1.500 I-0.500 J0.000 F360.000
G2 X51.110 Y30.890 Z1.000 I0.500 J0.000 F360.000
G2 X50.110 Y30.890 Z0.500 I-0.500 J0.000 F360.000
G2 X51.110 Y30.890 Z0.000 I0.500 J0.000 F360.000
G2 X50.110 Y30.890 Z0.000 I-0.500 J0.000 F360.000
G2 X51.110 Y30.890 Z0.000 I0.500 J0.000 F360.000
G0 X50.610 Y30.890 Z0.000
G0 Z2.000
G0 Z7.000
G0 X60.500 Y28.000 Z7.000
G0 X60.500 Y28.000 Z2.000
G0 X61.000 Y28.000
G1 Z2.000 F360.000
G2 X60.000 Y28.000 Z1.500 I-0.500 J0.000 F360.000
G2 X61.000 Y28.000 Z1.000 I0.500 J0.000 F360.000
G2 X60.000 Y28.000 Z0.500 I-0.500 J0.000 F360.000
G2 X61.000 Y28.000 Z0.000 I0.500 J0.000 F360.000
G2 X60.000 Y28.000 Z0.000 I-0.500 J0.000 F360.000
G2 X61.000 Y28.000 Z0.000 I0.500 J0.000 F360.000
G0 X60.500 Y28.000 Z0.000
G0 Z2.000
G0 Z7.000
G0 X59.500 Y15.000 Z7.000
G0 X59.500 Y15.000 Z2.000
G0 X60.000 Y15.000
G1 Z2.000 F360.000
G2 X59.000 Y15.000 Z1.500 I-0.500 J0.000 F360.000
G2 X60.000 Y15.000 Z1.000 I0.500 J0.000 F360.000
G2 X59.000 Y15.000 Z0.500 I-0.500 J0.000 F360.000
G2 X60.000 Y15.000 Z0.000 I0.500 J0.000 F360.000
G2 X59.000 Y15.000 Z0.000 I-0.500 J0.000 F360.000
G2 X60.000 Y15.000 Z0.000 I0.500 J0.000 F360.000
G0 X59.500 Y15.000 Z0.000
G0 Z2.000
G0 Z7.000
G0 X70.500 Y15.000 Z7.000
G0 X70.500 Y15.000 Z2.000
G0 X71.000 Y15.000
G1 Z2.000 F360.000
G2 X70.000 Y15.000 Z1.500 I-0.500 J0.000 F360.000
G2 X71.000 Y15.000 Z1.000 I0.500 J0.000 F360.000
G2 X70.000 Y15.000 Z0.500 I-0.500 J0.000 F360.000
G2 X71.000 Y15.000 Z0.000 I0.500 J0.000 F360.000
G2 X70.000 Y15.000 Z0.000 I-0.500 J0.000 F360.000
G2 X71.000 Y15.000 Z0.000 I0.500 J0.000 F360.000
G0 X70.500 Y15.000 Z0.000
G0 Z2.000
G0 Z7.000
G0 X93.500 Y16.165 Z7.000
G0 X93.500 Y16.165 Z2.000
G0 X94.000 Y16.165
G1 Z2.000 F360.000
G2 X93.000 Y16.165 Z1.500 I-0.500 J0.000 F360.000
G2 X94.000 Y16.165 Z1.000 I0.500 J0.000 F360.000
G2 X93.000 Y16.165 Z0.500 I-0.500 J0.000 F360.000
G2 X94.000 Y16.165 Z0.000 I0.500 J0.000 F360.000
G2 X93.000 Y16.165 Z0.000 I-0.500 J0.000 F360.000
G2 X94.000 Y16.165 Z0.000 I0.500 J0.000 F360.000
G0 X93.500 Y16.165 Z0.000
G0 Z2.000
G0 Z7.000
G0 X115.000 Y68.100 Z7.000
G0 X115.000 Y68.100 Z2.000
G0 X115.500 Y68.100
G1 Z2.000 F360.000
G2 X114.500 Y68.100 Z1.500 I-0.500 J0.000 F360.000
G2 X115.500 Y68.100 Z1.000 I0.500 J0.000 F360.000
G2 X114.500 Y68.100 Z0.500 I-0.500 J0.000 F360.000
G2 X115.500 Y68.100 Z0.000 I0.500 J0.000 F360.000
G2 X114.500 Y68.100 Z0.000 I-0.500 J0.000 F360.000
G2 X115.500 Y68.100 Z0.000 I0.500 J0.000 F360.000
G0 X115.000 Y68.100 Z0.000
G0 Z2.000
G0 Z7.000
G0 X93.500 Y73.000 Z7.000
G0 X93.500 Y73.000 Z2.000
G0 X94.000 Y73.000
G1 Z2.000 F360.000
G2 X93.000 Y73.000 Z1.500 I-0.500 J0.000 F360.000
G2 X94.000 Y73.000 Z1.000 I0.500 J0.000 F360.000
G2 X93.000 Y73.000 Z0.500 I-0.500 J0.000 F360.000
G2 X94.000 Y73.000 Z0.000 I0.500 J0.000 F360.000
G2 X93.000 Y73.000 Z0.000 I-0.500 J0.000 F360.000
G2 X94.000 Y73.000 Z0.000 I0.500 J0.000 F360.000
G0 X93.500 Y73.000 Z0.000
G0 Z2.000
G0 Z7.000
G0 X70.500 Y73.000 Z7.000
G0 X70.500 Y73.000 Z2.000
G0 X71.000 Y73.000
G1 Z2.000 F360.000
G2 X70.000 Y73.000 Z1.500 I-0.500 J0.000 F360.000
G2 X71.000 Y73.000 Z1.000 I0.500 J0.000 F360.000
G2 X70.000 Y73.000 Z0.500 I-0.500 J0.000 F360.000
G2 X71.000 Y73.000 Z0.000 I0.500 J0.000 F360.000
G2 X70.000 Y73.000 Z0.000 I-0.500 J0.000 F360.000
G2 X71.000 Y73.000 Z0.000 I0.500 J0.000 F360.000
G0 X70.500 Y73.000 Z0.000
G0 Z2.000
G0 Z7.000
G0 X50.610 Y73.000 Z7.000
G0 X50.610 Y73.000 Z2.000
G0 X51.110 Y73.000
G1 Z2.000 F360.000
G2 X50.110 Y73.000 Z1.500 I-0.500 J0.000 F360.000
G2 X51.110 Y73.000 Z1.000 I0.500 J0.000 F360.000
G2 X50.110 Y73.000 Z0.500 I-0.500 J0.000 F360.000
G2 X51.110 Y73.000 Z0.000 I0.500 J0.000 F360.000
G2 X50.110 Y73.000 Z0.000 I-0.500 J0.000 F360.000
G2 X51.110 Y73.000 Z0.000 I0.500 J0.000 F360.000
G0 X50.610 Y73.000 Z0.000
G0 Z2.000
G0 Z7.000
G0 X27.500 Y68.500 Z7.000
G0 X27.500 Y68.500 Z2.000
G0 X28.000 Y68.500
G1 Z2.000 F360.000
G2 X27.000 Y68.500 Z1.500 I-0.500 J0.000 F360.000
G2 X28.000 Y68.500 Z1.000 I0.500 J0.000 F360.000
G2 X27.000 Y68.500 Z0.500 I-0.500 J0.000 F360.000
G2 X28.000 Y68.500 Z0.000 I0.500 J0.000 F360.000
G2 X27.000 Y68.500 Z0.000 I-0.500 J0.000 F360.000
G2 X28.000 Y68.500 Z0.000 I0.500 J0.000 F360.000
G0 X27.500 Y68.500 Z0.000
G0 Z2.000
G0 Z7.000
G0 X10.500 Y73.000 Z7.000
G0 X10.500 Y73.000 Z2.000
G0 X11.000 Y73.000
G1 Z2.000 F360.000
G2 X10.000 Y73.000 Z1.500 I-0.500 J0.000 F360.000
G2 X11.000 Y73.000 Z1.000 I0.500 J0.000 F360.000
G2 X10.000 Y73.000 Z0.500 I-0.500 J0.000 F360.000
G2 X11.000 Y73.000 Z0.000 I0.500 J0.000 F360.000
G2 X10.000 Y73.000 Z0.000 I-0.500 J0.000 F360.000
G2 X11.000 Y73.000 Z0.000 I0.500 J0.000 F360.000
G0 X10.500 Y73.000 Z0.000
G0 Z2.000
G0 Z7.000
G0 X27.500 Y106.080 Z7.000
G0 X27.500 Y106.080 Z2.000
G0 X28.000 Y106.080
G1 Z2.000 F360.000
G2 X27.000 Y106.080 Z1.500 I-0.500 J0.000 F360.000
G2 X28.000 Y106.080 Z1.000 I0.500 J0.000 F360.000
G2 X27.000 Y106.080 Z0.500 I-0.500 J0.000 F360.000
G2 X28.000 Y106.080 Z0.000 I0.500 J0.000 F360.000
G2 X27.000 Y106.080 Z0.000 I-0.500 J0.000 F360.000
G2 X28.000 Y106.080 Z0.000 I0.500 J0.000 F360.000
G0 X27.500 Y106.080 Z0.000
G0 Z2.000
G0 Z7.000
G0 X27.500 Y143.868 Z7.000
G0 X27.500 Y143.868 Z2.000
G0 X28.000 Y143.868
G1 Z2.000 F360.000
G2 X27.000 Y143.868 Z1.500 I-0.500 J0.000 F360.000
G2 X28.000 Y143.868 Z1.000 I0.500 J0.000 F360.000
G2 X27.000 Y143.868 Z0.500 I-0.500 J0.000 F360.000
G2 X28.000 Y143.868 Z0.000 I0.500 J0.000 F360.000
G2 X27.000 Y143.868 Z0.000 I-0.500 J0.000 F360.000
G2 X28.000 Y143.868 Z0.000 I0.500 J0.000 F360.000
G0 X27.500 Y143.868 Z0.000
G0 Z2.000
G0 Z7.000
G0 X27.500 Y165.500 Z7.000
G0 X27.500 Y165.500 Z2.000
G0 X28.000 Y165.500
G1 Z2.000 F360.000
G2 X27.000 Y165.500 Z1.500 I-0.500 J0.000 F360.000
G2 X28.000 Y165.500 Z1.000 I0.500 J0.000 F360.000
G2 X27.000 Y165.500 Z0.500 I-0.500 J0.000 F360.000
G2 X28.000 Y165.500 Z0.000 I0.500 J0.000 F360.000
G2 X27.000 Y165.500 Z0.000 I-0.500 J0.000 F360.000
G2 X28.000 Y165.500 Z0.000 I0.500 J0.000 F360.000
G0 X27.500 Y165.500 Z0.000
G0 Z2.000
G0 Z7.000
G0 X82.500 Y166.300 Z7.000
G0 X82.500 Y166.300 Z2.000
G0 X83.000 Y166.300
G1 Z2.000 F360.000
G2 X82.000 Y166.300 Z1.500 I-0.500 J0.000 F360.000
G2 X83.000 Y166.300 Z1.000 I0.500 J0.000 F360.000
G2 X82.000 Y166.300 Z0.500 I-0.500 J0.000 F360.000
G2 X83.000 Y166.300 Z0.000 I0.500 J0.000 F360.000
G2 X82.000 Y166.300 Z0.000 I-0.500 J0.000 F360.000
G2 X83.000 Y166.300 Z0.000 I0.500 J0.000 F360.000
G0 X82.500 Y166.300 Z0.000
G0 Z2.000
G0 Z7.000
G0 X82.500 Y121.300 Z7.000
G0 X82.500 Y121.300 Z2.000
G0 X83.000 Y121.300
G1 Z2.000 F360.000
G2 X82.000 Y121.300 Z1.500 I-0.500 J0.000 F360.000
G2 X83.000 Y121.300 Z1.000 I0.500 J0.000 F360.000
G2 X82.000 Y121.300 Z0.500 I-0.500 J0.000 F360.000
G2 X83.000 Y121.300 Z0.000 I0.500 J0.000 F360.000
G2 X82.000 Y121.300 Z0.000 I-0.500 J0.000 F360.000
G2 X83.000 Y121.300 Z0.000 I0.500 J0.000 F360.000
G0 X82.500 Y121.300 Z0.000
G0 Z2.000
G0 Z7.000
G0 X70.500 Y106.080 Z7.000
G0 X70.500 Y106.080 Z2.000
G0 X71.000 Y106.080
G1 Z2.000 F360.000
G2 X70.000 Y106.080 Z1.500 I-0.500 J0.000 F360.000
G2 X71.000 Y106.080 Z1.000 I0.500 J0.000 F360.000
G2 X70.000 Y106.080 Z0.500 I-0.500 J0.000 F360.000
G2 X71.000 Y106.080 Z0.000 I0.500 J0.000 F360.000
G2 X70.000 Y106.080 Z0.000 I-0.500 J0.000 F360.000
G2 X71.000 Y106.080 Z0.000 I0.500 J0.000 F360.000
G0 X70.500 Y106.080 Z0.000
G0 Z2.000
G0 Z7.000
G0 X127.500 Y121.300 Z7.000
G0 X127.500 Y121.300 Z2.000
G0 X128.000 Y121.300
G1 Z2.000 F360.000
G2 X127.000 Y121.300 Z1.500 I-0.500 J0.000 F360.000
G2 X128.000 Y121.300 Z1.000 I0.500 J0.000 F360.000
G2 X127.000 Y121.300 Z0.500 I-0.500 J0.000 F360.000
G2 X128.000 Y121.300 Z0.000 I0.500 J0.000 F360.000
G2 X127.000 Y121.300 Z0.000 I-0.500 J0.000 F360.000
G2 X128.000 Y121.300 Z0.000 I0.500 J0.000 F360.000
G0 X127.500 Y121.300 Z0.000
G0 Z2.000
G0 Z7.000
G0 X143.500 Y158.000 Z7.000
G0 X143.500 Y158.000 Z2.000
G0 X144.000 Y158.000
G1 Z2.000 F360.000
G2 X143.000 Y158.000 Z1.500 I-0.500 J0.000 F360.000
G2 X144.000 Y158.000 Z1.000 I0.500 J0.000 F360.000
G2 X143.000 Y158.000 Z0.500 I-0.500 J0.000 F360.000
G2 X144.000 Y158.000 Z0.000 I0.500 J0.000 F360.000
G2 X143.000 Y158.000 Z0.000 I-0.500 J0.000 F360.000
G2 X144.000 Y158.000 Z0.000 I0.500 J0.000 F360.000
G0 X143.500 Y158.000 Z0.000
G0 Z2.000
G0 Z7.000
G0 X127.500 Y166.300 Z7.000
G0 X127.500 Y166.300 Z2.000
G0 X128.000 Y166.300
G1 Z2.000 F360.000
G2 X127.000 Y166.300 Z1.500 I-0.500 J0.000 F360.000
G2 X128.000 Y166.300 Z1.000 I0.500 J0.000 F360.000
G2 X127.000 Y166.300 Z0.500 I-0.500 J0.000 F360.000
G2 X128.000 Y166.300 Z0.000 I0.500 J0.000 F360.000
G2 X127.000 Y166.300 Z0.000 I-0.500 J0.000 F360.000
G2 X128.000 Y166.300 Z0.000 I0.500 J0.000 F360.000
G0 X127.500 Y166.300 Z0.000
G0 Z2.000
G0 Z7.000
G0 X187.000 Y79.000 Z7.000
G0 X187.000 Y79.000 Z2.000
G0 X187.500 Y79.000
G1 Z2.000 F360.000
G2 X186.500 Y79.000 Z1.500 I-0.500 J0.000 F360.000
G2 X187.500 Y79.000 Z1.000 I0.500 J0.000 F360.000
G2 X186.500 Y79.000 Z0.500 I-0.500 J0.000 F360.000
G2 X187.500 Y79.000 Z0.000 I0.500 J0.000 F360.000
G2 X186.500 Y79.000 Z0.000 I-0.500 J0.000 F360.000
G2 X187.500 Y79.000 Z0.000 I0.500 J0.000 F360.000
G0 X187.000 Y79.000 Z0.000
G0 Z2.000
G0 Z7.000
G0 X143.500 Y61.000 Z7.000
G0 X143.500 Y61.000 Z2.000
G0 X144.000 Y61.000
G1 Z2.000 F360.000
G2 X143.000 Y61.000 Z1.500 I-0.500 J0.000 F360.000
G2 X144.000 Y61.000 Z1.000 I0.500 J0.000 F360.000
G2 X143.000 Y61.000 Z0.500 I-0.500 J0.000 F360.000
G2 X144.000 Y61.000 Z0.000 I0.500 J0.000 F360.000
G2 X143.000 Y61.000 Z0.000 I-0.500 J0.000 F360.000
G2 X144.000 Y61.000 Z0.000 I0.500 J0.000 F360.000
G0 X143.500 Y61.000 Z0.000
G0 Z2.000
G0 Z7.000
(Finish operation: Helix)
(Begin operation: Pocket_Shape)
(Path: Pocket_Shape)
(Pocket_Shape)
G0 Z7.000
G0 X60.842 Y73.359
G0 Z5.000
G1 X60.842 Y73.359 Z1.000 F360.000
G2 X60.897 Y72.706 Z1.000 I-0.359 J-0.359 K0.000 F360.000
G2 X60.542 Y72.507 Z1.000 I-0.397 J0.294 K0.000 F360.000
G3 X59.883 Y72.579 Z1.000 I-0.669 J-3.087 K0.000 F360.000
G2 X59.355 Y72.527 Z1.000 I-0.348 J0.835 K0.000 F360.000
G2 X59.563 Y73.490 Z1.000 I0.145 J0.473 K0.000 F360.000
G3 X60.232 Y73.441 Z1.000 I0.422 J1.177 K0.000 F360.000
G2 X60.842 Y73.359 Z1.000 I0.252 J-0.441 K0.000 F360.000
G1 X60.842 Y73.359 Z0.200 F360.000
G2 X60.897 Y72.706 Z0.200 I-0.359 J-0.359 K0.000 F360.000
G2 X60.542 Y72.507 Z0.200 I-0.397 J0.294 K0.000 F360.000
G3 X59.883 Y72.579 Z0.200 I-0.669 J-3.087 K0.000 F360.000
G2 X59.355 Y72.527 Z0.200 I-0.348 J0.835 K0.000 F360.000
G2 X59.563 Y73.490 Z0.200 I0.145 J0.473 K0.000 F360.000
G3 X60.232 Y73.441 Z0.200 I0.422 J1.177 K0.000 F360.000
G2 X60.842 Y73.359 Z0.200 I0.252 J-0.441 K0.000 F360.000
G1 X60.842 Y73.359 Z0.000 F360.000
G2 X60.897 Y72.706 Z0.000 I-0.359 J-0.359 K-0.000 F360.000
G2 X60.542 Y72.507 Z0.000 I-0.397 J0.294 K-0.000 F360.000
G3 X59.883 Y72.579 Z-0.000 I-0.669 J-3.087 K-0.000 F360.000
G2 X59.355 Y72.527 Z-0.000 I-0.348 J0.835 K-0.000 F360.000
G2 X59.563 Y73.490 Z-0.000 I0.145 J0.473 K0.000 F360.000
G3 X60.232 Y73.441 Z0.000 I0.422 J1.177 K0.000 F360.000
G2 X60.842 Y73.359 Z0.000 I0.252 J-0.441 K0.000 F360.000
G0 Z7.000
G0 Z7.000
(Finish operation: Pocket_Shape)
(Begin operation: DressupTag)
(Path: DressupTag)
G0 Z7.000
G0 X193.014 Y155.500 Z7.000
G0 X193.014 Y155.500 Z5.000
G1 X193.014 Y155.500 Z0.500 F360.000
G3 X193.000 Y155.500 Z0.500 I-0.014 J-0.500 K0.000 F360.000
G1 X184.008 Y155.500 Z0.500 F360.000
G2 X166.500 Y173.016 Z0.500 I-0.007 J17.501 K0.000 F360.000
G3 X166.000 Y173.500 Z0.500 I-0.500 J-0.016 K0.000 F360.000
G1 X102.140 Y173.500 Z0.500 F360.000
G1 X101.640 Y173.500 Z1.000 F360.000
G1 X87.360 Y173.500 Z1.000 F360.000
G1 X86.860 Y173.500 Z0.500 F360.000
G1 X23.000 Y173.500 Z0.500 F360.000
G3 X22.500 Y173.016 Z0.500 I-0.000 J-0.500 K0.000 F360.000
G2 X4.984 Y155.500 Z0.500 I-17.502 J-0.015 K0.000 F360.000
G3 X4.500 Y155.000 Z0.500 I0.016 J-0.500 K0.000 F360.000
G1 X4.500 Y115.140 Z0.500 F360.000
G1 X4.500 Y114.640 Z1.000 F360.000
G1 X4.500 Y100.360 Z1.000 F360.000
G1 X4.500 Y99.860 Z0.500 F360.000
G1 X4.500 Y60.000 Z0.500 F360.000
G3 X5.000 Y59.500 Z0.500 I0.500 J-0.000 K0.000 F360.000
G1 X16.990 Y59.500 Z0.500 F360.000
G2 X28.500 Y47.990 Z0.500 I0.009 J-11.501 K0.000 F360.000
G1 X28.500 Y5.000 Z0.500 F360.000
G3 X29.000 Y4.500 Z0.500 I0.500 J-0.000 K0.000 F360.000
G1 X91.360 Y4.500 Z0.500 F360.000
G1 X91.860 Y4.500 Z1.000 F360.000
G1 X106.140 Y4.500 Z1.000 F360.000
G1 X106.640 Y4.500 Z0.500 F360.000
G1 X169.000 Y4.500 Z0.500 F360.000
G3 X169.500 Y5.000 Z0.500 I0.000 J0.500 K0.000 F360.000
G1 X169.500 Y47.990 Z0.500 F360.000
G2 X181.010 Y59.500 Z0.500 I11.501 J0.009 K0.000 F360.000
G1 X193.000 Y59.500 Z0.500 F360.000
G3 X193.500 Y60.000 Z0.500 I0.000 J0.500 K0.000 F360.000
G1 X193.500 Y99.860 Z0.500 F360.000
G1 X193.500 Y100.360 Z1.000 F360.000
G1 X193.500 Y114.640 Z1.000 F360.000
G1 X193.500 Y115.140 Z0.500 F360.000
G1 X193.500 Y155.000 Z0.500 F360.000
G3 X193.014 Y155.500 Z0.500 I-0.500 J0.000 K0.000 F360.000
G1 X193.014 Y155.500 Z0.000 F360.000
G3 X193.000 Y155.500 Z0.000 I-0.014 J-0.500 K0.000 F360.000
G1 X184.008 Y155.500 Z0.000 F360.000
G2 X166.500 Y173.016 Z0.000 I-0.007 J17.501 K0.000 F360.000
G3 X166.000 Y173.500 Z0.000 I-0.500 J-0.016 K0.000 F360.000
G1 X102.640 Y173.500 Z0.000 F360.000
G1 X101.640 Y173.500 Z1.000 F360.000
G1 X87.360 Y173.500 Z1.000 F360.000
G1 X86.360 Y173.500 Z0.000 F360.000
G1 X23.000 Y173.500 Z0.000 F360.000
G3 X22.500 Y173.016 Z0.000 I-0.000 J-0.500 K0.000 F360.000
G2 X4.984 Y155.500 Z0.000 I-17.502 J-0.015 K0.000 F360.000
G3 X4.500 Y155.000 Z0.000 I0.016 J-0.500 K0.000 F360.000
G1 X4.500 Y115.640 Z0.000 F360.000
G1 X4.500 Y114.640 Z1.000 F360.000
G1 X4.500 Y100.360 Z1.000 F360.000
G1 X4.500 Y99.360 Z0.000 F360.000
G1 X4.500 Y60.000 Z0.000 F360.000
G3 X5.000 Y59.500 Z0.000 I0.500 J-0.000 K0.000 F360.000
G1 X16.990 Y59.500 Z0.000 F360.000
G2 X28.500 Y47.990 Z0.000 I0.009 J-11.501 K0.000 F360.000
G1 X28.500 Y5.000 Z0.000 F360.000
G3 X29.000 Y4.500 Z0.000 I0.500 J-0.000 K0.000 F360.000
G1 X90.860 Y4.500 Z0.000 F360.000
G1 X91.860 Y4.500 Z1.000 F360.000
G1 X106.140 Y4.500 Z1.000 F360.000
G1 X107.140 Y4.500 Z0.000 F360.000
G1 X169.000 Y4.500 Z0.000 F360.000
G3 X169.500 Y5.000 Z0.000 I0.000 J0.500 K0.000 F360.000
G1 X169.500 Y47.990 Z0.000 F360.000
G2 X181.010 Y59.500 Z0.000 I11.501 J0.009 K0.000 F360.000
G1 X193.000 Y59.500 Z0.000 F360.000
G3 X193.500 Y60.000 Z0.000 I0.000 J0.500 K0.000 F360.000
G1 X193.500 Y99.360 Z0.000 F360.000
G1 X193.500 Y100.360 Z1.000 F360.000
G1 X193.500 Y114.640 Z1.000 F360.000
G1 X193.500 Y115.640 Z0.000 F360.000
G1 X193.500 Y155.000 Z0.000 F360.000
G3 X193.014 Y155.500 Z0.000 I-0.500 J0.000 K0.000 F360.000
G0 X193.014 Y155.500 Z7.000
(Finish operation: DressupTag)
(Begin postamble)
M5
G17 G90
M2
